src/images/svg/jump-indices/jump-indices-grid.svg

<svg width="1008" height="744" viewBox="0 0 1008 744" fill="none" xmlns="http://www.w3.org/2000/svg">
<path fill-rule="evenodd" clip-rule="evenodd" d="M2 0H0V2.11064V91.8128V93.9234V184.681V186.791V276.494V278.604V369.362V371.472V462.23V464.34V555.098V557.209V647.966V650.077V741.889V742.945V744H1008V742.945V741.889V650.077V647.966V557.209V555.098V464.34V462.23V371.472V369.362V278.604V276.494V186.791V184.681V93.9234V91.8128V2.11064V0H1006H882H880H756H754H630H628H505H503H379H377H253H251H127H125H2ZM1006 369.362V278.604H882V369.362H1006ZM880 369.362V278.604H756V369.362H880ZM756 371.472H880V462.23H756V371.472ZM754 369.362V278.604H630V369.362H754ZM630 371.472H754V462.23H630V371.472ZM628 369.362V278.604H505V369.362H628ZM505 371.472H628V462.23H505V371.472ZM503 369.362V278.604H379V369.362H503ZM379 371.472H503V462.23H379V371.472ZM377 369.362V278.604H253V369.362H377ZM253 371.472H377V462.23H253V371.472ZM251 369.362V278.604H127V369.362H251ZM127 371.472H251V462.23H127V371.472ZM125 369.362V278.604H2V369.362H125ZM2 371.472H125V462.23H2V371.472ZM882 371.472H1006V462.23H882V371.472ZM125 741.889H2V650.077H125V741.889ZM251 741.889H127V650.077H251V741.889ZM377 741.889H253V650.077H377V741.889ZM503 741.889H379V650.077H503V741.889ZM628 741.889H505V650.077H628V741.889ZM754 741.889H630V650.077H754V741.889ZM880 741.889H756V650.077H880V741.889ZM1006 741.889H882V650.077H1006V741.889ZM1006 91.8128V2.11064H882V91.8128H1006ZM880 91.8128V2.11064H756V91.8128H880ZM756 93.9234H880V184.681H756V93.9234ZM754 91.8128V2.11064H630V91.8128H754ZM630 93.9234H754V184.681H630V93.9234ZM628 91.8128V2.11064H505V91.8128H628ZM505 93.9234H628V184.681H505V93.9234ZM503 91.8128V2.11064H379V91.8128H503ZM379 93.9234H503V184.681H379V93.9234ZM377 91.8128V2.11064H253V91.8128H377ZM253 93.9234H377V184.681H253V93.9234ZM251 91.8128V2.11064H127V91.8128H251ZM127 93.9234H251V184.681H127V93.9234ZM125 91.8128V2.11064H2V91.8128H125ZM2 93.9234H125V184.681H2V93.9234ZM882 93.9234H1006V184.681H882V93.9234ZM2 276.494H125V186.791H2V276.494ZM127 276.494H251V186.791H127V276.494ZM253 276.494H377V186.791H253V276.494ZM379 276.494H503V186.791H379V276.494ZM505 276.494H628V186.791H505V276.494ZM630 276.494H754V186.791H630V276.494ZM756 276.494H880V186.791H756V276.494ZM882 276.494H1006V186.791H882V276.494ZM756 464.34H880V555.098H756V464.34ZM630 464.34H754V555.098H630V464.34ZM505 464.34H628V555.098H505V464.34ZM379 464.34H503V555.098H379V464.34ZM253 464.34H377V555.098H253V464.34ZM127 464.34H251V555.098H127V464.34ZM2 464.34H125V555.098H2V464.34ZM882 464.34H1006V555.098H882V464.34ZM125 647.966H2V557.209H125V647.966ZM251 647.966H127V557.209H251V647.966ZM377 647.966H253V557.209H377V647.966ZM503 647.966H379V557.209H503V647.966ZM628 647.966H505V557.209H628V647.966ZM754 647.966H630V557.209H754V647.966ZM880 647.966H756V557.209H880V647.966ZM1006 647.966H882V557.209H1006V647.966Z" fill="url(#paint0_linear)" fill-opacity="0.2"/>
<defs>
<linearGradient id="paint0_linear" x1="1008" y1="371.472" x2="12.4999" y2="371.472" gradientUnits="userSpaceOnUse">
<stop stop-color="#C4C4C4"/>
<stop offset="1" stop-color="#C4C4C4" stop-opacity="0"/>
</linearGradient>
</defs>
</svg>

<svg width="1008" height="744" fill="none" xmlns="http://www.w3.org/2000/svg"><path fill-rule="evenodd" clip-rule="evenodd" d="M2 0H0V744h1008V0H2zm1004 369.362v-90.758H882v90.758h124zm-126 0v-90.758H756v90.758h124zm-124 2.11h124v90.758H756v-90.758zm-2-2.11v-90.758H630v90.758h124zm-124 2.11h124v90.758H630v-90.758zm-2-2.11v-90.758H505v90.758h123zm-123 2.11h123v90.758H505v-90.758zm-2-2.11v-90.758H379v90.758h124zm-124 2.11h124v90.758H379v-90.758zm-2-2.11v-90.758H253v90.758h124zm-124 2.11h124v90.758H253v-90.758zm-2-2.11v-90.758H127v90.758h124zm-124 2.11h124v90.758H127v-90.758zm-2-2.11v-90.758H2v90.758h123zm-123 2.11h123v90.758H2v-90.758zm880 0h124v90.758H882v-90.758zM125 741.889H2v-91.812h123v91.812zm126 0H127v-91.812h124v91.812zm126 0H253v-91.812h124v91.812zm126 0H379v-91.812h124v91.812zm125 0H505v-91.812h123v91.812zm126 0H630v-91.812h124v91.812zm126 0H756v-91.812h124v91.812zm126 0H882v-91.812h124v91.812zm0-650.076V2.11H882v89.702h124zm-126 0V2.11H756v89.702h124zm-124 2.11h124v90.758H756V93.923zm-2-2.11V2.11H630v89.702h124zm-124 2.11h124v90.758H630V93.923zm-2-2.11V2.11H505v89.702h123zm-123 2.11h123v90.758H505V93.923zm-2-2.11V2.11H379v89.702h124zm-124 2.11h124v90.758H379V93.923zm-2-2.11V2.11H253v89.702h124zm-124 2.11h124v90.758H253V93.923zm-2-2.11V2.11H127v89.702h124zm-124 2.11h124v90.758H127V93.923zm-2-2.11V2.11H2v89.702h123zM2 93.923h123v90.758H2V93.923zm880 0h124v90.758H882V93.923zM2 276.494h123v-89.703H2v89.703zm125 0h124v-89.703H127v89.703zm126 0h124v-89.703H253v89.703zm126 0h124v-89.703H379v89.703zm126 0h123v-89.703H505v89.703zm125 0h124v-89.703H630v89.703zm126 0h124v-89.703H756v89.703zm126 0h124v-89.703H882v89.703zM756 464.34h124v90.758H756V464.34zm-126 0h124v90.758H630V464.34zm-125 0h123v90.758H505V464.34zm-126 0h124v90.758H379V464.34zm-126 0h124v90.758H253V464.34zm-126 0h124v90.758H127V464.34zm-125 0h123v90.758H2V464.34zm880 0h124v90.758H882V464.34zM125 647.966H2v-90.757h123v90.757zm126 0H127v-90.757h124v90.757zm126 0H253v-90.757h124v90.757zm126 0H379v-90.757h124v90.757zm125 0H505v-90.757h123v90.757zm126 0H630v-90.757h124v90.757zm126 0H756v-90.757h124v90.757zm126 0H882v-90.757h124v90.757z" fill="url(#a)" fill-opacity=".2"/><defs><linearGradient id="a" x1="1008" y1="371.472" x2="12.5" y2="371.472" gradientUnits="userSpaceOnUse"><stop stop-color="#C4C4C4"/><stop offset="1" stop-color="#C4C4C4" stop-opacity="0"/></linearGradient></defs></svg>
